X: 6
T:Dusky Meadow
M:4/4
L:1/8
C:Traditional
R:Strathspey
N:from The Scottish Music List, Vol2 No 16
Z:Toby A. Rider
O:Cape Breton, N.S.
K:D
B,| A,>A E<C D<G,D>B,| A,>A E<C F>DE>C| D<EC>E D/2C/2B,/2A,/2 G,>B,| A,>
AE>D C<A,A,>B,|!
,>A E<C D<G,D>B,| A,>A E<C F>DE>C| D<EC>E D/2C/2B,/2A,/2 |
D<EC>E D/2C/2B,/2A,/2 G,>d| c>A e/2d/2c/2B/2 c<A>A|!
g| a>ec>A BGG>g|  a>e c<A e>Ac>A| d<Bc>A d/2c/2B/2A/2 G>g| f<ae>d c>AA>g
|!
a>ec>A B<GG>g| a>e c<A e>Ac>A| d<Bc>A d/2c/2B/2A/2 G>g (3faf>d c>AA||

